src/icon/banking/card-add/icon_card-add_m_black.svg

<svg width="24px" height="24px" viewBox="0 0 24 24" version="1.1" xmlns="http://www.w3.org/2000/svg"><g transform="translate(-76.000000, -35.000000) translate(76.000000, 35.000000)" stroke="none" stroke-width="1" fill="none" fill-rule="evenodd"><polygon points="0 0 24 0 24 24 0 24"/><path d="M5,14 L9,14 L9,16 L5,16 L5,14 Z M2,8 L22,8 L22,11 L2,11 L2,8 Z" fill="#0B1F35" fill-rule="nonzero" opacity="0.3"/><path d="M23,11.0013275 L22,11.0013275 L22,5.42857143 C22,4.62923673 21.3999848,4 20.6842105,4 L3.31578947,4 C2.60001521,4 2,4.62923673 2,5.42857143 L2,17.5714286 C2,18.3707633 2.60001521,19 3.31578947,19 L13.9989941,19 L13.9989941,20 L3.31578947,20 C2.03681426,20 1,18.9126915 1,17.5714286 L1,5.42857143 C1,4.08730846 2.03681426,3 3.31578947,3 L20.6842105,3 C21.9631857,3 23,4.08730846 23,5.42857143 L23,11.0013275 Z" fill="#0B1F35" fill-rule="nonzero"/><polygon fill="#0B1F35" points="21 21 21 18 24 18 24 17 21 17 21 14 20 14 20 17 17 17 17 18 20 18 20 21"/><path d="M23,11.0013275 L22,11.0013275 L22,5.42857143 C22,4.62923673 21.3999848,4 20.6842105,4 L3.31578947,4 C2.60001521,4 2,4.62923673 2,5.42857143 L2,17.5714286 C2,18.3707633 2.60001521,19 3.31578947,19 L13.9989941,19 L13.9989941,20 L3.31578947,20 C2.03681426,20 1,18.9126915 1,17.5714286 L1,5.42857143 C1,4.08730846 2.03681426,3 3.31578947,3 L20.6842105,3 C21.9631857,3 23,4.08730846 23,5.42857143 L23,11.0013275 Z" fill="#0B1F35" fill-rule="nonzero"/></g></svg>

<svg width="24" height="24" viewBox="0 0 24 24" xmlns="http://www.w3.org/2000/svg"><g fill="none" fill-rule="evenodd"><path d="M0 0h24v24H0z"/><path d="M5 14h4v2H5v-2zM2 8h20v3H2V8z" fill="#0B1F35" fill-rule="nonzero" opacity=".3"/><path d="M23 11.001h-1V5.43C22 4.629 21.4 4 20.684 4H3.316C2.6 4 2 4.63 2 5.429V17.57c0 .8.6 1.429 1.316 1.429h10.683v1H3.316C2.036 20 1 18.913 1 17.571V5.43C1 4.087 2.037 3 3.316 3h17.368C21.964 3 23 4.087 23 5.429V11z" fill="#0B1F35" fill-rule="nonzero"/><path fill="#0B1F35" d="M21 21v-3h3v-1h-3v-3h-1v3h-3v1h3v3z"/><path d="M23 11.001h-1V5.43C22 4.629 21.4 4 20.684 4H3.316C2.6 4 2 4.63 2 5.429V17.57c0 .8.6 1.429 1.316 1.429h10.683v1H3.316C2.036 20 1 18.913 1 17.571V5.43C1 4.087 2.037 3 3.316 3h17.368C21.964 3 23 4.087 23 5.429V11z" fill="#0B1F35" fill-rule="nonzero"/></g></svg>
